SVG_Azure_Grouped/IoT/Device.svg

<?xml version="1.0" encoding="UTF-8" standalone="no"?>
<!-- Generated by Microsoft Visio, SVG Export Device.svg Page-1 -->

<svg
   xmlns:dc="http://purl.org/dc/elements/1.1/"
   xmlns:cc="http://creativecommons.org/ns#"
   xmlns:rdf="http://www.w3.org/1999/02/22-rdf-syntax-ns#"
   xmlns:svg="http://www.w3.org/2000/svg"
   xmlns="http://www.w3.org/2000/svg"
   xmlns:sodipodi="http://sodipodi.sourceforge.net/DTD/sodipodi-0.dtd"
   xmlns:inkscape="http://www.inkscape.org/namespaces/inkscape"
   width="0.78735721in"
   height="0.78735721in"
   viewBox="0 0 56.689786 56.689998"
   xml:space="preserve"
   class="st4"
   version="1.1"
   id="svg34"
   sodipodi:docname="Device.svg"
   style="font-size:12px;overflow:visible;color-interpolation-filters:sRGB;fill:none;fill-rule:evenodd;stroke-linecap:square;stroke-miterlimit:3"
   inkscape:version="0.92.5 (2060ec1f9f, 2020-04-08)"><metadata
   id="metadata40"><rdf:RDF><cc:Work
       rdf:about=""><dc:format>image/svg+xml</dc:format><dc:type
         rdf:resource="http://purl.org/dc/dcmitype/StillImage" /></cc:Work></rdf:RDF></metadata><defs
   id="defs38" /><sodipodi:namedview
   pagecolor="#ffffff"
   bordercolor="#666666"
   borderopacity="1"
   objecttolerance="10"
   gridtolerance="10"
   guidetolerance="10"
   inkscape:pageopacity="0"
   inkscape:pageshadow="2"
   inkscape:window-width="640"
   inkscape:window-height="480"
   id="namedview36"
   showgrid="false"
   inkscape:zoom="1.6696778"
   inkscape:cx="37.79508"
   inkscape:cy="25.319606"
   inkscape:window-x="0"
   inkscape:window-y="0"
   inkscape:window-maximized="0"
   inkscape:current-layer="svg34" />
	<style
   type="text/css"
   id="style2">
	<![CDATA[
		.st1 {fill:#a0a1a2;stroke:none;stroke-linecap:butt;stroke-width:15.3}
		.st2 {fill:#00188f;stroke:none;stroke-linecap:butt;stroke-width:15.3}
		.st3 {fill:#e5e5e5;stroke:none;stroke-linecap:butt;stroke-width:15.3}
		.st4 {fill:none;fill-rule:evenodd;font-size:12px;overflow:visible;stroke-linecap:square;stroke-miterlimit:3}
	]]>
	</style>

	<g
   id="g32"
   transform="translate(-15.300164,-15.3043)">
		<title
   id="title4">Page-1</title>
		<g
   id="group20659-1"
   transform="translate(15.3,-34.0157)">
			<title
   id="title6">Device.20659</title>
			<g
   id="group20660-2">
				<title
   id="title8">Sheet.20660</title>
				<g
   id="shape20661-3">
					<title
   id="title10">Sheet.20661</title>
					<path
   d="M 6.85,66.68 H 0.43 v -3.87 h 6.42 v -7.04 h 7.72 v -6.45 h 3.85 v 6.45 h 3.86 v -6.45 h 3.14 v 6.45 h 5.14 v -6.45 h 3.14 v 6.45 h 5.14 v -6.45 h 3.14 v 6.45 h 7.72 v 7.04 h 6.99 v 3.87 H 49.7 v 5.17 h 6.99 v 3.87 H 49.7 v 3.88 h 6.99 v 3.88 H 49.7 v 5.16 h 6.85 v 4.45 h -6.71 v 6.46 h -7.71 v 6.46 h -3.14 v -6.46 h -4.43 v 6.46 H 30.7 v -6.46 h -5.14 v 6.46 h -3.14 v -6.46 h -4.43 v 6.46 H 14.14 V 99.55 H 6.43 V 92.52 H 0.29 v -4.6 H 6.43 V 82.76 H 0.71 V 78.88 H 6.43 V 74.43 H 0 V 71.28 H 7 C 6.85,71.13 6.85,68.55 6.85,66.68 Z M 47.41,96.97 V 58.93 H 10.14 v 38.04 z"
   class="st1"
   id="path12"
   inkscape:connector-curvature="0"
   style="fill:#a0a1a2;stroke:none;stroke-width:15.30000019;stroke-linecap:butt" />
				</g>
				<g
   id="shape20662-5"
   transform="translate(9.42502,-9.04216)">
					<title
   id="title15">Sheet.20662</title>
					<rect
   x="0"
   y="67.974197"
   width="37.842899"
   height="38.0345"
   class="st2"
   id="rect17"
   style="fill:#00188f;stroke:none;stroke-width:15.30000019;stroke-linecap:butt" />
				</g>
				<g
   id="shape20663-7"
   transform="translate(13.9947,-13.635)">
					<title
   id="title20">Sheet.20663</title>
					<rect
   x="0"
   y="77.016296"
   width="28.8463"
   height="28.9923"
   class="st3"
   id="rect22"
   style="fill:#e5e5e5;stroke:none;stroke-width:15.30000019;stroke-linecap:butt" />
				</g>
				<g
   id="shape20664-9"
   transform="translate(17.422,-16.6491)">
					<title
   id="title25">Sheet.20664</title>
					<rect
   x="0"
   y="83.044403"
   width="21.8489"
   height="22.964199"
   class="st2"
   id="rect27"
   style="fill:#00188f;stroke:none;stroke-width:15.30000019;stroke-linecap:butt" />
				</g>
			</g>
		</g>
	</g>
</svg>

<?xml version="1.0" encoding="UTF-8" standalone="no"?>
<!DOCTYPE svg PUBLIC "-//W3C//DTD SVG 1.1//EN" "http://www.w3.org/Graphics/SVG/1.1/DTD/svg11.dtd">
<!-- Generated by Microsoft Visio, SVG Export Device.svg Page-1 -->
<svg xmlns="http://www.w3.org/2000/svg" xmlns:xlink="http://www.w3.org/1999/xlink" xmlns:ev="http://www.w3.org/2001/xml-events"
		width="1.2124in" height="1.47234in" viewBox="0 0 87.2929 106.009" xml:space="preserve" color-interpolation-filters="sRGB"
		class="st4">
	<style type="text/css">
	<![CDATA[
		.st1 {fill:#a0a1a2;stroke:none;stroke-linecap:butt;stroke-width:15.3}
		.st2 {fill:#00188f;stroke:none;stroke-linecap:butt;stroke-width:15.3}
		.st3 {fill:#e5e5e5;stroke:none;stroke-linecap:butt;stroke-width:15.3}
		.st4 {fill:none;fill-rule:evenodd;font-size:12px;overflow:visible;stroke-linecap:square;stroke-miterlimit:3}
	]]>
	</style>

	<g>
		<title>Page-1</title>
		<g id="group20204-1" transform="translate(15.3,-34.0157)">
			<title>Device.20204</title>
			<g id="group20205-2">
				<title>Sheet.20205</title>
				<g id="shape20206-3">
					<title>Sheet.20206</title>
					<path d="M6.85 66.68 L0.43 66.68 L0.43 62.81 L6.85 62.81 L6.85 55.77 L14.57 55.77 L14.57 49.32 L18.42 49.32 L18.42
								 55.77 L22.28 55.77 L22.28 49.32 L25.42 49.32 L25.42 55.77 L30.56 55.77 L30.56 49.32 L33.7 49.32
								 L33.7 55.77 L38.84 55.77 L38.84 49.32 L41.98 49.32 L41.98 55.77 L49.7 55.77 L49.7 62.81 L56.69 62.81
								 L56.69 66.68 L49.7 66.68 L49.7 71.85 L56.69 71.85 L56.69 75.72 L49.7 75.72 L49.7 79.6 L56.69 79.6
								 L56.69 83.48 L49.7 83.48 L49.7 88.64 L56.55 88.64 L56.55 93.09 L49.84 93.09 L49.84 99.55 L42.13
								 99.55 L42.13 106.01 L38.99 106.01 L38.99 99.55 L34.56 99.55 L34.56 106.01 L30.7 106.01 L30.7 99.55
								 L25.56 99.55 L25.56 106.01 L22.42 106.01 L22.42 99.55 L17.99 99.55 L17.99 106.01 L14.14 106.01 L14.14
								 99.55 L6.43 99.55 L6.43 92.52 L0.29 92.52 L0.29 87.92 L6.43 87.92 L6.43 82.76 L0.71 82.76 L0.71
								 78.88 L6.43 78.88 L6.43 74.43 L0 74.43 L0 71.28 L7 71.28 C6.85 71.13 6.85 68.55 6.85 66.68 ZM47.41
								 96.97 L47.41 58.93 L10.14 58.93 L10.14 96.97 L47.41 96.97 Z" class="st1"/>
				</g>
				<g id="shape20207-5" transform="translate(9.42502,-9.04216)">
					<title>Sheet.20207</title>
					<rect x="0" y="67.9742" width="37.8429" height="38.0345" class="st2"/>
				</g>
				<g id="shape20208-7" transform="translate(13.9947,-13.635)">
					<title>Sheet.20208</title>
					<rect x="0" y="77.0163" width="28.8463" height="28.9923" class="st3"/>
				</g>
				<g id="shape20209-9" transform="translate(17.422,-16.6491)">
					<title>Sheet.20209</title>
					<rect x="0" y="83.0444" width="21.8489" height="22.9642" class="st2"/>
				</g>
			</g>
		</g>
	</g>
</svg>
